X: 34189
T: Reel Of Mullinavat, The
R: reel
M: 4/4
K: Edorian
f|ggge dBAG|GBAG EEEF|GFEF GABd|eBBA Bdef|
ggfd edBA|GGGF EDEF|GEEF GGGA|Bedf eeef||
gffe dBBA|GABG EDBD|GEBE G2 GB|eBGB BBef|
gbfg edBA|GFGB EDBD|GEEF GDGA|BGdf eeef||
|:geBe gebg|afdf afdb|gBeB gbeb|afdf eeef|
gggf gbag|adfa faab|bgaf gfed|Bgfd eeef:|

